X:2962
T:Chinese tune
C:anon.
O:China
Z:Transcribed by Frank Nordberg - http://www.musicaviva.com
F:http://abc.musicaviva.com/tunes/china/chinese-tune-02/chinese-tune-02.abc
M:C|
L:1/4
K:Gmix
G|GGAA|BEG2|AAAG|ABG2|
EGAz|AAAG|GAGE|D2z2|BGA2|
ABA2|GGGA|ABGE|D2z2|D>ED|]
W:
W:
W:  From Musica Viva - http://www.musicaviva.com
W:  the Internet center for free sheet music downloads.
